X: 34493
T: Riding On A Load Of Hay
R: polka
M: 2/4
K: Edorian
|:E>F GA|Be ef/e/|dB AG|FD D2|
E>F GA|Be e>f|ge af|fe e2:|
g2 f2|eB B>c|dB AG|FD D2|
ga/g/ fg/f/|eB B>c|dB AF|E2 E2|
g2 f2|eB B>c|dB AG|FD D2|
E/F/G F/G/A|GB e>f|ge af|fe e2||

